Newaita-dark/mimetypes/22/x-office-calendar.svg

<?xml version="1.0" encoding="UTF-8"?>
<svg xmlns="http://www.w3.org/2000/svg" xmlns:xlink="http://www.w3.org/1999/xlink" width="22px" height="22px" viewBox="0 0 22 22" version="1.1">
<defs>
<linearGradient id="linear0" gradientUnits="userSpaceOnUse" x1="254" y1="233.5" x2="254" y2="254.666672" gradientTransform="matrix(0.0429729,0,0,0.0429729,0.454795,9.239163)">
<stop offset="0" style="stop-color:rgb(0%,0%,0%);stop-opacity:0.27451;"/>
<stop offset="1" style="stop-color:rgb(0%,0%,0%);stop-opacity:0;"/>
</linearGradient>
<radialGradient id="radial0" gradientUnits="userSpaceOnUse" cx="450.908936" cy="189.579361" fx="450.908936" fy="189.579361" r="21.166656" gradientTransform="matrix(0.000000119742,-0.0537161,-0.0966889,-0.0000000698078,34.020641,43.72179)">
<stop offset="0" style="stop-color:rgb(0%,0%,0%);stop-opacity:0.313726;"/>
<stop offset="0.222222" style="stop-color:rgb(0%,0%,0%);stop-opacity:0.27451;"/>
<stop offset="1" style="stop-color:rgb(0%,0%,0%);stop-opacity:0;"/>
</radialGradient>
<radialGradient id="radial1" gradientUnits="userSpaceOnUse" cx="450.908936" cy="189.579361" fx="450.908936" fy="189.579361" r="21.166656" gradientTransform="matrix(-0.000000119742,0.0537161,0.0966889,0.0000000698078,-12.645221,-5.175143)">
<stop offset="0" style="stop-color:rgb(0%,0%,0%);stop-opacity:0.313726;"/>
<stop offset="0.222222" style="stop-color:rgb(0%,0%,0%);stop-opacity:0.27451;"/>
<stop offset="1" style="stop-color:rgb(0%,0%,0%);stop-opacity:0;"/>
</radialGradient>
<radialGradient id="radial2" gradientUnits="userSpaceOnUse" cx="450.908936" cy="189.579361" fx="450.908936" fy="189.579361" r="21.166656" gradientTransform="matrix(-0.000000119742,-0.0537161,0.0966889,-0.0000000698078,-12.645221,43.72179)">
<stop offset="0" style="stop-color:rgb(0%,0%,0%);stop-opacity:0.313726;"/>
<stop offset="0.222222" style="stop-color:rgb(0%,0%,0%);stop-opacity:0.27451;"/>
<stop offset="1" style="stop-color:rgb(0%,0%,0%);stop-opacity:0;"/>
</radialGradient>
<radialGradient id="radial3" gradientUnits="userSpaceOnUse" cx="450.908936" cy="189.579361" fx="450.908936" fy="189.579361" r="21.166656" gradientTransform="matrix(0.000000119742,0.0537161,-0.0966889,0.0000000698078,34.02064,-5.175143)">
<stop offset="0" style="stop-color:rgb(0%,0%,0%);stop-opacity:0.313726;"/>
<stop offset="0.222222" style="stop-color:rgb(0%,0%,0%);stop-opacity:0.27451;"/>
<stop offset="1" style="stop-color:rgb(0%,0%,0%);stop-opacity:0;"/>
</radialGradient>
<linearGradient id="linear1" gradientUnits="userSpaceOnUse" x1="940" y1="1695.118164" x2="940" y2="175.118118" gradientTransform="matrix(0.0113699,0,0,0.0113699,0,0)">
<stop offset="0" style="stop-color:rgb(64.705884%,83.92157%,65.490198%);stop-opacity:1;"/>
<stop offset="1" style="stop-color:rgb(78.431374%,90.196079%,78.823531%);stop-opacity:1;"/>
</linearGradient>
<filter id="alpha" filterUnits="objectBoundingBox" x="0%" y="0%" width="100%" height="100%">
  <feColorMatrix type="matrix" in="SourceGraphic" values="0 0 0 0 1 0 0 0 0 1 0 0 0 0 1 0 0 0 1 0"/>
</filter>
<mask id="mask0">
  <g filter="url(#alpha)">
<rect x="0" y="0" width="22" height="22" style="fill:rgb(0%,0%,0%);fill-opacity:0.99;stroke:none;"/>
  </g>
</mask>
<linearGradient id="linear2" gradientUnits="userSpaceOnUse" x1="4272.755859" y1="7219.344238" x2="4272.755859" y2="1474.462158" gradientTransform="matrix(0.264583,0,0,0.264583,-190.5,-214.999985)">
<stop offset="0" style="stop-color:rgb(40.000001%,73.333335%,41.568628%);stop-opacity:1;"/>
<stop offset="1" style="stop-color:rgb(50.588238%,78.039217%,51.764709%);stop-opacity:1;"/>
</linearGradient>
<clipPath id="clip1">
  <rect x="0" y="0" width="22" height="22"/>
</clipPath>
<g id="surface5" clip-path="url(#clip1)">
<path style="fill-rule:nonzero;fill:url(#linear2);stroke-width:11.338583;stroke-linecap:round;stroke-linejoin:round;stroke:rgb(12.941177%,12.941177%,12.941177%);stroke-opacity:1;stroke-miterlimit:4;" d="M 740.029584 695.023143 C 729.035644 695.023143 720.103068 703.955719 720.103068 714.949659 L 720.103068 733.845493 L 630.090185 733.845493 C 626.998139 733.845493 623.906093 734.189054 620.814048 735.219736 L 620.126927 735.219736 C 608.789426 735.219736 599.85685 744.152312 599.85685 755.146252 L 599.85685 1235.100444 C 599.85685 1246.094384 608.789426 1255.02696 620.126927 1255.02696 L 1259.836809 1255.02696 C 1271.174309 1255.02696 1280.106885 1246.094384 1280.106885 1235.100444 L 1280.106885 755.146252 C 1280.106885 744.152312 1271.174309 735.219736 1259.836809 735.219736 L 1259.149687 735.219736 C 1256.057642 734.189054 1253.309157 733.845493 1249.873551 733.845493 L 1159.860667 733.845493 L 1159.860667 714.949659 C 1159.860667 703.955719 1150.928091 695.023143 1139.934151 695.023143 L 1059.884525 695.023143 C 1048.890585 695.023143 1039.958009 703.955719 1039.958009 714.949659 L 1039.958009 733.845493 L 840.005726 733.845493 L 840.005726 714.949659 C 840.005726 703.955719 831.07315 695.023143 820.07921 695.023143 Z M 699.832991 855.122393 L 779.882617 855.122393 C 791.220117 855.122393 800.152694 864.05497 800.152694 875.04891 L 800.152694 955.098535 C 800.152694 966.092475 791.220117 975.025051 779.882617 975.025051 L 699.832991 975.025051 C 688.839051 975.025051 679.906475 966.092475 679.906475 955.098535 L 679.906475 875.04891 C 679.906475 864.05497 688.839051 855.122393 699.832991 855.122393 Z M 900.128835 855.122393 L 979.8349 855.122393 C 991.172401 855.122393 1000.104977 864.05497 1000.104977 875.04891 L 1000.104977 955.098535 C 1000.104977 966.092475 991.172401 975.025051 979.8349 975.025051 L 900.128835 975.025051 C 888.791335 975.025051 879.858758 966.092475 879.858758 955.098535 L 879.858758 875.04891 C 879.858758 864.05497 888.791335 855.122393 900.128835 855.122393 Z M 1100.081118 855.122393 L 1180.130744 855.122393 C 1191.124684 855.122393 1200.05726 864.05497 1200.05726 875.04891 L 1200.05726 955.098535 C 1200.05726 966.092475 1191.124684 975.025051 1180.130744 975.025051 L 1100.081118 975.025051 C 1089.087178 975.025051 1080.154602 966.092475 1080.154602 955.098535 L 1080.154602 875.04891 C 1080.154602 864.05497 1089.087178 855.122393 1100.081118 855.122393 Z M 699.832991 1055.074677 L 779.882617 1055.074677 C 791.220117 1055.074677 800.152694 1064.007253 800.152694 1075.001193 L 800.152694 1155.050818 C 800.152694 1166.044758 791.220117 1174.977334 779.882617 1174.977334 L 699.832991 1174.977334 C 688.839051 1174.977334 679.906475 1166.044758 679.906475 1155.050818 L 679.906475 1075.001193 C 679.906475 1064.007253 688.839051 1055.074677 699.832991 1055.074677 Z M 900.128835 1055.074677 L 979.8349 1055.074677 C 991.172401 1055.074677 1000.104977 1064.007253 1000.104977 1075.001193 L 1000.104977 1155.050818 C 1000.104977 1166.044758 991.172401 1174.977334 979.8349 1174.977334 L 900.128835 1174.977334 C 888.791335 1174.977334 879.858758 1166.044758 879.858758 1155.050818 L 879.858758 1075.001193 C 879.858758 1064.007253 888.791335 1055.074677 900.128835 1055.074677 Z M 1100.081118 1055.074677 L 1180.130744 1055.074677 C 1191.124684 1055.074677 1200.05726 1064.007253 1200.05726 1075.001193 L 1200.05726 1155.050818 C 1200.05726 1166.044758 1191.124684 1174.977334 1180.130744 1174.977334 L 1100.081118 1174.977334 C 1089.087178 1174.977334 1080.154602 1166.044758 1080.154602 1155.050818 L 1080.154602 1075.001193 C 1080.154602 1064.007253 1089.087178 1055.074677 1100.081118 1055.074677 Z M 1100.081118 1055.074677 " transform="matrix(0.0113699,0,0,0.0113699,0,0)"/>
</g>
<linearGradient id="linear3" gradientUnits="userSpaceOnUse" x1="249.189423" y1="233.5" x2="249.189423" y2="254.666687" gradientTransform="matrix(0.0205522,0,0,0.0752024,10.341665,-11.248126)">
<stop offset="0" style="stop-color:rgb(0%,0%,0%);stop-opacity:0.27451;"/>
<stop offset="1" style="stop-color:rgb(0%,0%,0%);stop-opacity:0;"/>
</linearGradient>
<linearGradient id="linear4" gradientUnits="userSpaceOnUse" x1="338.666656" y1="233.5" x2="338.666656" y2="-168.666672" gradientTransform="matrix(0.0429729,0,0,0.0429729,0,9.239163)">
<stop offset="0" style="stop-color:rgb(40.000001%,73.333335%,41.568628%);stop-opacity:1;"/>
<stop offset="1" style="stop-color:rgb(50.588238%,78.039217%,51.764709%);stop-opacity:1;"/>
</linearGradient>
</defs>
<g id="surface1">
<path style=" stroke:none;fill-rule:nonzero;fill:url(#linear0);" d="M 5.457031 19.273438 L 15.917969 19.273438 L 15.917969 20.183594 L 5.457031 20.183594 Z M 5.457031 19.273438 "/>
<path style=" stroke:none;fill-rule:nonzero;fill:url(#radial0);" d="M 15.917969 19.273438 L 17.738281 19.273438 L 17.738281 18.363281 L 15.917969 18.363281 Z M 15.917969 19.273438 "/>
<path style=" stroke:none;fill-rule:nonzero;fill:url(#radial1);" d="M 5.457031 19.273438 L 3.636719 19.273438 L 3.636719 20.183594 L 5.457031 20.183594 Z M 5.457031 19.273438 "/>
<path style=" stroke:none;fill-rule:nonzero;fill:url(#radial2);" d="M 5.457031 19.273438 L 3.636719 19.273438 L 3.636719 18.363281 L 5.457031 18.363281 Z M 5.457031 19.273438 "/>
<path style=" stroke:none;fill-rule:nonzero;fill:url(#radial3);" d="M 15.917969 19.273438 L 17.738281 19.273438 L 17.738281 20.183594 L 15.917969 20.183594 Z M 15.917969 19.273438 "/>
<path style=" stroke:none;fill-rule:nonzero;fill:url(#linear1);" d="M 12.746094 1.992188 L 4.546875 1.992188 C 4.042969 1.992188 3.636719 2.398438 3.636719 2.902344 L 3.636719 18.363281 C 3.636719 18.867188 4.042969 19.273438 4.546875 19.273438 L 16.828125 19.273438 C 17.332031 19.273438 17.738281 18.867188 17.738281 18.363281 L 17.738281 6.980469 Z M 12.746094 1.992188 "/>
<path style=" stroke:none;fill-rule:nonzero;fill:rgb(0%,0%,0%);fill-opacity:0.235294;" d="M 3.636719 18.011719 L 3.636719 18.363281 C 3.636719 18.867188 4.042969 19.273438 4.546875 19.273438 L 16.828125 19.273438 C 17.332031 19.273438 17.738281 18.867188 17.738281 18.363281 L 17.738281 18.011719 C 17.738281 18.515625 17.332031 18.921875 16.828125 18.921875 L 4.546875 18.921875 C 4.042969 18.921875 3.636719 18.515625 3.636719 18.011719 Z M 3.636719 18.011719 "/>
<use xlink:href="#surface5" mask="url(#mask0)"/>
<path style=" stroke:none;fill-rule:nonzero;fill:url(#linear3);" d="M 12.734375 6.3125 L 17.054688 6.3125 L 17.738281 6.992188 L 17.738281 7.902344 L 12.734375 7.902344 Z M 12.734375 6.3125 "/>
<path style=" stroke:none;fill-rule:nonzero;fill:rgb(96.470588%,96.470588%,96.470588%);fill-opacity:0.588235;" d="M 4.546875 1.992188 C 4.042969 1.992188 3.636719 2.398438 3.636719 2.902344 L 3.636719 3.242188 C 3.636719 2.738281 4.042969 2.332031 4.546875 2.332031 L 12.746094 2.332031 L 17.738281 7.320312 L 17.738281 6.980469 L 12.746094 1.992188 Z M 4.546875 1.992188 "/>
<path style=" stroke:none;fill-rule:nonzero;fill:url(#linear4);" d="M 17.738281 6.980469 L 12.746094 1.992188 L 12.746094 6.070312 C 12.746094 6.574219 13.152344 6.980469 13.65625 6.980469 Z M 17.738281 6.980469 "/>
<path style=" stroke:none;fill-rule:nonzero;fill:rgb(0%,0%,0%);fill-opacity:0.235294;" d="M 12.746094 5.855469 L 12.746094 6.070312 C 12.746094 6.574219 13.152344 6.980469 13.65625 6.980469 L 17.738281 6.980469 L 17.523438 6.765625 L 13.65625 6.765625 C 13.152344 6.765625 12.746094 6.359375 12.746094 5.855469 Z M 12.746094 5.855469 "/>
<path style=" stroke:none;fill-rule:nonzero;fill:rgb(100%,100%,100%);fill-opacity:0.392157;" d="M 12.746094 1.992188 L 12.746094 2.332031 L 17.394531 6.980469 L 17.738281 6.980469 Z M 12.746094 1.992188 "/>
<path style=" stroke:none;fill-rule:nonzero;fill:rgb(12.941177%,12.941177%,12.941177%);fill-opacity:1;" d="M 12.746094 1.925781 C 12.710938 1.925781 12.683594 1.957031 12.683594 1.992188 L 12.683594 6.070312 C 12.683594 6.609375 13.117188 7.042969 13.65625 7.042969 L 17.738281 7.042969 C 17.761719 7.042969 17.785156 7.027344 17.796875 7.003906 C 17.804688 6.980469 17.800781 6.953125 17.78125 6.933594 L 12.792969 1.945312 C 12.78125 1.933594 12.765625 1.925781 12.746094 1.925781 Z M 12.8125 2.148438 L 17.582031 6.914062 L 13.65625 6.914062 C 13.1875 6.914062 12.8125 6.539062 12.8125 6.070312 Z M 12.8125 2.148438 "/>
<path style=" stroke:none;fill-rule:nonzero;fill:rgb(12.941177%,12.941177%,12.941177%);fill-opacity:1;" d="M 4.546875 1.925781 C 4.007812 1.925781 3.574219 2.363281 3.574219 2.902344 L 3.574219 18.363281 C 3.574219 18.902344 4.007812 19.335938 4.546875 19.335938 L 16.828125 19.335938 C 17.367188 19.335938 17.800781 18.902344 17.800781 18.363281 L 17.800781 6.980469 C 17.800781 6.964844 17.792969 6.945312 17.78125 6.933594 L 12.792969 1.945312 C 12.78125 1.933594 12.765625 1.925781 12.746094 1.925781 Z M 4.546875 2.054688 L 12.722656 2.054688 L 17.671875 7.007812 L 17.671875 18.363281 C 17.671875 18.832031 17.296875 19.207031 16.828125 19.207031 L 4.546875 19.207031 C 4.078125 19.207031 3.703125 18.832031 3.703125 18.363281 L 3.703125 2.902344 C 3.703125 2.429688 4.078125 2.054688 4.546875 2.054688 Z M 4.546875 2.054688 "/>
</g>
</svg>

<svg xmlns="http://www.w3.org/2000/svg" xmlns:xlink="http://www.w3.org/1999/xlink" width="22pt" height="22pt" viewBox="0 0 22 22"><defs><linearGradient id="d" gradientUnits="userSpaceOnUse" x1="254" y1="233.5" x2="254" y2="254.667" gradientTransform="matrix(.04297 0 0 .04297 .455 9.24)"><stop offset="0" stop-opacity=".275"/><stop offset="1" stop-opacity="0"/></linearGradient><radialGradient id="e" gradientUnits="userSpaceOnUse" cx="450.909" cy="189.579" fx="450.909" fy="189.579" r="21.167" gradientTransform="matrix(0 -.05372 -.09669 0 34.02 43.722)"><stop offset="0" stop-opacity=".314"/><stop offset=".222" stop-opacity=".275"/><stop offset="1" stop-opacity="0"/></radialGradient><radialGradient id="f" gradientUnits="userSpaceOnUse" cx="450.909" cy="189.579" fx="450.909" fy="189.579" r="21.167" gradientTransform="matrix(0 .05372 .09669 0 -12.645 -5.175)"><stop offset="0" stop-opacity=".314"/><stop offset=".222" stop-opacity=".275"/><stop offset="1" stop-opacity="0"/></radialGradient><radialGradient id="g" gradientUnits="userSpaceOnUse" cx="450.909" cy="189.579" fx="450.909" fy="189.579" r="21.167" gradientTransform="matrix(0 -.05372 .09669 0 -12.645 43.722)"><stop offset="0" stop-opacity=".314"/><stop offset=".222" stop-opacity=".275"/><stop offset="1" stop-opacity="0"/></radialGradient><radialGradient id="h" gradientUnits="userSpaceOnUse" cx="450.909" cy="189.579" fx="450.909" fy="189.579" r="21.167" gradientTransform="matrix(0 .05372 -.09669 0 34.02 -5.175)"><stop offset="0" stop-opacity=".314"/><stop offset=".222" stop-opacity=".275"/><stop offset="1" stop-opacity="0"/></radialGradient><linearGradient id="i" gradientUnits="userSpaceOnUse" x1="940" y1="1695.118" x2="940" y2="175.118" gradientTransform="rotate(.24) scale(.01137)"><stop offset="0" stop-color="#a5d6a7"/><stop offset="1" stop-color="#c8e6c9"/></linearGradient><filter id="a" filterUnits="objectBoundingBox" x="0%" y="0%" width="100%" height="100%"><feColorMatrix in="SourceGraphic" values="0 0 0 0 1 0 0 0 0 1 0 0 0 0 1 0 0 0 1 0"/></filter><mask id="k"><path fill-opacity=".988" d="M0 0h22v22H0z" filter="url(#a)"/></mask><linearGradient id="c" gradientUnits="userSpaceOnUse" x1="4272.756" y1="7219.344" x2="4272.756" y2="1474.462" gradientTransform="matrix(.26458 0 0 .26458 -190.5 -215)"><stop offset="0" stop-color="#66bb6a"/><stop offset="1" stop-color="#81c784"/></linearGradient><clipPath id="b"><path d="M0 0h22v22H0z"/></clipPath><g id="j" clip-path="url(#b)"><path d="M740.03 695.023c-10.994 0-19.927 8.933-19.927 19.927v18.895H630.09c-3.092 0-6.184.344-9.276 1.375h-.687c-11.338 0-20.27 8.932-20.27 19.926V1235.1c0 10.994 8.932 19.927 20.27 19.927h639.71c11.337 0 20.27-8.933 20.27-19.927V755.146c0-10.994-8.933-19.926-20.27-19.926h-.687c-3.092-1.03-5.84-1.375-9.276-1.375h-90.013V714.95c0-10.994-8.933-19.927-19.927-19.927h-80.05c-10.993 0-19.926 8.933-19.926 19.927v18.895H840.006V714.95c0-10.994-8.933-19.927-19.927-19.927zm-40.197 160.1h80.05c11.337 0 20.27 8.932 20.27 19.926v80.05c0 10.993-8.933 19.926-20.27 19.926h-80.05c-10.994 0-19.927-8.933-19.927-19.926v-80.05c0-10.994 8.933-19.927 19.927-19.927zm200.296 0h79.706c11.337 0 20.27 8.932 20.27 19.926v80.05c0 10.993-8.933 19.926-20.27 19.926h-79.706c-11.338 0-20.27-8.933-20.27-19.926v-80.05c0-10.994 8.932-19.927 20.27-19.927zm199.952 0h80.05c10.994 0 19.926 8.932 19.926 19.926v80.05c0 10.993-8.932 19.926-19.926 19.926h-80.05c-10.994 0-19.926-8.933-19.926-19.926v-80.05c0-10.994 8.932-19.927 19.926-19.927zm-400.248 199.952h80.05c11.337 0 20.27 8.932 20.27 19.926v80.05c0 10.994-8.933 19.926-20.27 19.926h-80.05c-10.994 0-19.927-8.932-19.927-19.926V1075c0-10.994 8.933-19.926 19.927-19.926zm200.296 0h79.706c11.337 0 20.27 8.932 20.27 19.926v80.05c0 10.994-8.933 19.926-20.27 19.926h-79.706c-11.338 0-20.27-8.932-20.27-19.926V1075c0-10.994 8.932-19.926 20.27-19.926zm199.952 0h80.05c10.994 0 19.926 8.932 19.926 19.926v80.05c0 10.994-8.932 19.926-19.926 19.926h-80.05c-10.994 0-19.926-8.932-19.926-19.926V1075c0-10.994 8.932-19.926 19.926-19.926zm0 0" transform="rotate(.24) scale(.01137)" fill="url(#c)" stroke-width="11.339" stroke-linecap="round" stroke-linejoin="round" stroke="#212121"/></g><linearGradient id="l" gradientUnits="userSpaceOnUse" x1="249.189" y1="233.5" x2="249.189" y2="254.667" gradientTransform="matrix(.02055 0 0 .0752 10.342 -11.248)"><stop offset="0" stop-opacity=".275"/><stop offset="1" stop-opacity="0"/></linearGradient><linearGradient id="m" gradientUnits="userSpaceOnUse" x1="338.667" y1="233.5" x2="338.667" y2="-168.667" gradientTransform="matrix(.04297 0 0 .04297 0 9.24)"><stop offset="0" stop-color="#66bb6a"/><stop offset="1" stop-color="#81c784"/></linearGradient></defs><path d="M5.457 19.273h10.461v.91H5.457zm0 0" fill="url(#d)"/><path d="M15.918 19.273h1.82v-.91h-1.82zm0 0" fill="url(#e)"/><path d="M5.457 19.273h-1.82v.91h1.82zm0 0" fill="url(#f)"/><path d="M5.457 19.273h-1.82v-.91h1.82zm0 0" fill="url(#g)"/><path d="M15.918 19.273h1.82v.91h-1.82zm0 0" fill="url(#h)"/><path d="M12.746 1.992h-8.2a.909.909 0 0 0-.91.91v15.461c0 .504.407.91.91.91h12.282c.504 0 .91-.406.91-.91V6.98zm0 0" fill="url(#i)"/><path d="M3.637 18.012v.351c0 .504.406.91.91.91h12.281c.504 0 .91-.406.91-.91v-.351c0 .504-.406.91-.91.91H4.547a.909.909 0 0 1-.91-.91zm0 0" fill-opacity=".235"/><use xlink:href="#j" mask="url(#k)"/><path d="M12.734 6.313h4.32l.684.68v.91h-5.004zm0 0" fill="url(#l)"/><path d="M4.547 1.992a.909.909 0 0 0-.91.91v.34c0-.504.406-.91.91-.91h8.2l4.991 4.988v-.34l-4.992-4.988zm0 0" fill="#f6f6f6" fill-opacity=".588"/><path d="M17.738 6.98l-4.992-4.988V6.07c0 .504.406.91.91.91zm0 0" fill="url(#m)"/><path d="M12.746 5.855v.215c0 .504.406.91.91.91h4.082l-.215-.214h-3.867a.909.909 0 0 1-.91-.91zm0 0" fill-opacity=".235"/><path d="M12.746 1.992v.34l4.649 4.648h.343zm0 0" fill="#fff" fill-opacity=".392"/><path d="M12.746 1.926c-.035 0-.062.031-.062.066V6.07c0 .54.433.973.972.973h4.082a.068.068 0 0 0 .059-.04.068.068 0 0 0-.016-.07l-4.988-4.988a.065.065 0 0 0-.047-.02zm.066.222l4.77 4.766h-3.926a.84.84 0 0 1-.844-.844zm0 0" fill="#212121"/><path d="M4.547 1.926a.974.974 0 0 0-.973.976v15.461c0 .54.434.973.973.973h12.281a.97.97 0 0 0 .973-.973V6.98a.072.072 0 0 0-.02-.046l-4.988-4.989a.065.065 0 0 0-.047-.02zm0 .129h8.176l4.949 4.953v11.355a.84.84 0 0 1-.844.844H4.547a.84.84 0 0 1-.844-.844V2.903c0-.473.375-.848.844-.848zm0 0" fill="#212121"/></svg>
